X:111
T:Fyra skilling har jag supit opp
R:sl\"angpolska
A:\"Osterg\"otland
B:SvL \"Ogl 501
Z:id:hn-sp-111
M:3/4
L:1/16
K:D
A2A2 F2F2 A2A2 | G2G2 F4 A4 |
w:Fy-ra skil-ling har jag sup-it opp och
B2A2 F2F2 A2G2 | E4 D4 z2A2 |
w:s{\aa} den lil-la svar-ta ko-na, och
A2A2 F4 A4 | G2G2 F4 A4 |
w:in-te har jag mer i-gen \"an
B2A2 F2F2 A2G2 | E4 D4 z2 ||
w:sj\"al-va knop-pen ut-av hor-na.
A,2 | A,2A,2 D4 F2F2 | E2E2 F6 A,2 |
w:Och li-te ban-nor, det har jag f{\aa}tt, och
A,2A,2 D4 F2F2 | E2E2 F4 z2A2 | 
w:f{\aa}r jag me-ra, s{\aa} g\"or det gott, f\"or
B2A2 F2F2 A2G2 | E4 D4 z4 ||
w:jag har dan-sat s\"on-der skor-na.
<end>
<start>
